Modular_evening_Display_LUT_v1_17x17.cube
TITLE "Generated by Resolve"
LUT_3D_SIZE 5
0.0130617 0.0146334 0.0121614
0.431724 0.0543069 0.0116121
0.75523 0.0962081 0.0558328
0.953582 0.139452 0.100252
1 0.168795 0.12697
0.0161593 0.390249 0.0519417
0.326986 0.389075 0.0704509
0.685176 0.404639 0.0463874
0.90724 0.427619 0.0814527
1 0.456901 0.114305
0.0584115 0.722591 0.109545
0.334554 0.711711 0.118303
0.618311 0.711971 0.143023
0.846281 0.733883 0.161181
1 0.738109 0.148486
0.130694 0.977371 0.182345
0.384833 0.954559 0.177905
0.635935 0.937301 0.184558
0.826764 0.931075 0.197391
0.97705 0.932876 0.210773
0.130999 1 0.184497
0.378546 1 0.176516
0.629206 1 0.185214
0.808698 1 0.189761
0.957488 1 0.201785
0.0467689 0.0610819 0.299763
0.426398 0.0452888 0.302892
0.752407 0.124254 0.332143
0.955261 0.166339 0.364965
1 0.195514 0.393561
0.0209354 0.394461 0.27631
0.335805 0.394873 0.294286
0.68397 0.413443 0.292088
0.90898 0.439567 0.322881
1 0.468345 0.352895
0.0619059 0.723247 0.322194
0.3364 0.712169 0.327291
0.619425 0.712337 0.351171
0.846769 0.732906 0.367254
1 0.734096 0.353536
0.121065 0.974929 0.386419
0.375753 0.951141 0.378714
0.631357 0.932235 0.385351
0.822293 0.925566 0.39617
0.972412 0.927169 0.408453
0.118288 1 0.386526
0.366567 1 0.375006
0.623987 1 0.385016
0.803098 1 0.387289
0.953841 1 0.400061
0.0899519 0.111574 0.563149
0.418555 0.098436 0.569039
0.751431 0.11162 0.562356
0.958358 0.209567 0.62092
1 0.246067 0.652506
0.0569924 0.4112 0.520333
0.349874 0.409461 0.522972
0.67834 0.429923 0.543999
0.910384 0.465324 0.572412
1 0.488197 0.591501
0.0543679 0.725948 0.527306
0.330312 0.713802 0.527565
0.621195 0.713817 0.550759
0.849744 0.732631 0.562829
1 0.734096 0.559899
0.107851 0.975128 0.579599
0.356954 0.949767 0.565499
0.629984 0.928969 0.576806
0.819409 0.92282 0.584237
0.970245 0.924575 0.594842
0.101793 1 0.575952
0.342611 1 0.557717
0.611734 1 0.567056
0.799161 1 0.573312
0.950866 1 0.585687
0.135882 0.162219 0.772
0.44033 0.15378 0.771603
0.756481 0.110079 0.758144
0.964767 0.19028 0.776547
1 0.227085 0.802686
0.104143 0.448524 0.720806
0.382589 0.445548 0.724239
0.680873 0.420829 0.724269
0.914031 0.467231 0.74461
1 0.510613 0.775006
0.0642405 0.73167 0.707561
0.331685 0.718242 0.702083
0.618051 0.713558 0.707698
0.854185 0.730419 0.723934
1 0.739727 0.735683
0.0867323 0.979522 0.736233
0.340063 0.951659 0.721325
0.612192 0.929259 0.721889
0.817685 0.923613 0.736263
0.97258 0.926253 0.746044
0.0783398 1 0.728679
0.322438 1 0.710292
0.586694 1 0.70808
0.799039 1 0.725032
0.950896 1 0.736751
0.194812 0.220539 0.940734
0.478798 0.210575 0.937285
0.780774 0.182544 0.944686
0.972717 0.188891 0.919844
1 0.219776 0.937545
0.146319 0.490288 0.885954
0.418662 0.484718 0.889494
0.701045 0.469276 0.89749
0.921553 0.456809 0.881117
1 0.499092 0.898497
0.0961471 0.759243 0.870024
0.356313 0.743648 0.862486
0.631098 0.73167 0.857572
0.854658 0.726207 0.85919
1 0.755871 0.881361
0.0832837 0.983185 0.873503
0.335012 0.954223 0.856382
0.601267 0.932174 0.846952
0.817716 0.925414 0.858747
0.976928 0.929305 0.867491
0.0678874 1 0.861341
0.306127 1 0.839704
0.571298 1 0.830533
0.792111 1 0.843473
0.953384 1 0.858442
