Modular_evening_Display_LUT_v1_17x17.cube
TITLE "Generated by Resolve"
LUT_3D_SIZE 9
0.0130617 0.0146334 0.0121614
0.227604 0.0348211 0.0166934
0.431724 0.0543069 0.0116121
0.609461 0.0756237 0.0338293
0.75523 0.0962081 0.0558328
0.872984 0.117357 0.0776837
0.953582 0.139452 0.100252
1 0.157366 0.11754
1 0.168795 0.12697
0.00631724 0.206439 0.0313725
0.170657 0.203449 0.0372168
0.384054 0.215503 0.0146334
0.568689 0.22501 0.0244755
0.719661 0.237583 0.0421607
0.843259 0.255116 0.0629282
0.929778 0.275883 0.0849317
1 0.296712 0.106798
1 0.30901 0.115877
0.0161593 0.390249 0.0519417
0.16054 0.387182 0.0567178
0.326986 0.389075 0.0704509
0.522606 0.408286 0.0660563
0.685176 0.404639 0.0463874
0.811749 0.413428 0.0628061
0.90724 0.427619 0.0814527
0.980346 0.444465 0.102708
1 0.456901 0.114305
0.0325933 0.567285 0.0793469
0.164675 0.562173 0.0804456
0.319921 0.561532 0.0892195
0.479789 0.563012 0.106706
0.636683 0.577813 0.127184
0.776425 0.579721 0.0981155
0.883009 0.579705 0.0870832
0.959182 0.59089 0.106645
1 0.601526 0.121111
0.0584115 0.722591 0.109545
0.184253 0.715511 0.108232
0.334554 0.711711 0.118303
0.476066 0.710674 0.125246
0.618311 0.711971 0.143023
0.738735 0.720943 0.168383
0.846281 0.733883 0.161181
0.939803 0.737606 0.152819
1 0.738109 0.148486
0.0957809 0.858701 0.147433
0.218387 0.850034 0.143801
0.358495 0.843336 0.149477
0.499428 0.8383 0.158236
0.621073 0.835401 0.162509
0.737667 0.835752 0.176303
0.829023 0.840131 0.190921
0.911803 0.847608 0.19675
0.997208 0.851331 0.189853
0.130694 0.977371 0.182345
0.251453 0.965774 0.175677
0.384833 0.954559 0.177905
0.523674 0.944503 0.186633
0.635935 0.937301 0.184558
0.737819 0.932097 0.188724
0.826764 0.931075 0.197391
0.903563 0.931792 0.205982
0.97705 0.932876 0.210773
0.136294 1 0.188403
0.257115 1 0.181903
0.389425 1 0.183444
0.526024 1 0.192172
0.640589 1 0.193454
0.737499 1 0.194614
0.821744 1 0.199878
0.897581 1 0.206363
0.969223 1 0.211719
0.130999 1 0.184497
0.249195 1 0.17612
0.378546 1 0.176516
0.513329 1 0.18323
0.629206 1 0.185214
0.725139 1 0.185229
0.808698 1 0.189761
0.885008 1 0.196109
0.957488 1 0.201785
0.0325322 0.0398108 0.158541
0.227909 0.0153658 0.162127
0.427771 0.0660563 0.171801
0.607141 0.088365 0.179263
0.754406 0.107439 0.190799
0.873198 0.127184 0.207477
0.954192 0.14873 0.227619
1 0.166445 0.244953
1 0.178775 0.256779
0.00935378 0.209186 0.148425
0.177737 0.208576 0.156741
0.381628 0.21973 0.1505
0.567391 0.230991 0.156451
0.7196 0.24416 0.168917
0.843488 0.261677 0.186343
0.930922 0.282353 0.207141
1 0.302464 0.227634
1 0.315251 0.238163
0.0224155 0.391546 0.163928
0.165942 0.3888 0.168032
0.329992 0.390936 0.181537
0.523873 0.409445 0.1776
0.685802 0.406943 0.162554
0.81236 0.415824 0.177829
0.907958 0.430167 0.196475
0.98114 0.447105 0.217502
1 0.459709 0.229847
0.0357671 0.567926 0.188373
0.167651 0.562997 0.188861
0.322591 0.562005 0.197955
0.480949 0.563622 0.214618
0.637339 0.577981 0.233921
0.77702 0.579721 0.205783
0.883345 0.579767 0.196521
0.959594 0.591196 0.216526
1 0.601617 0.231312
0.0597086 0.722454 0.217243
0.185275 0.71548 0.214847
0.334691 0.711757 0.224643
0.47602 0.710369 0.231449
0.618128 0.711543 0.248814
0.738567 0.720272 0.273899
0.84596 0.732769 0.266102
0.939071 0.73579 0.257282
1 0.735576 0.252293
0.0953841 0.857984 0.25391
0.217838 0.849424 0.249393
0.356725 0.84239 0.254292
0.498283 0.83714 0.263203
0.619379 0.833936 0.266835
0.735714 0.833646 0.279774
0.827085 0.837736 0.294194
0.910109 0.844923 0.299474
0.995102 0.848295 0.292302
0.128893 0.975708 0.287755
0.248768 0.96376 0.280415
0.381582 0.952514 0.28159
0.520058 0.942107 0.289723
0.633021 0.934173 0.287739
0.734752 0.929 0.291096
0.824079 0.927901 0.299733
0.900786 0.928359 0.308156
0.974395 0.929488 0.31284
0.133227 1 0.293568
0.253681 1 0.286366
0.38529 1 0.287282
0.522148 1 0.295155
0.63743 1 0.296574
0.734432 1 0.297276
0.818753 1 0.302235
0.894759 1 0.308629
0.966491 1 0.313954
0.127535 1 0.289189
0.245411 1 0.280064
0.374121 1 0.279393
0.509087 1 0.285847
0.625742 1 0.287953
0.721706 1 0.287541
0.805676 1 0.291966
0.882231 1 0.298329
0.95552 1 0.304768
0.0467689 0.0610819 0.299763
0.220722 0.0559854 0.30486
0.426398 0.0452888 0.302892
0.604517 0.0976883 0.320211
0.752407 0.124254 0.332143
0.873243 0.146166 0.347967
0.955261 0.166339 0.364965
1 0.182727 0.380331
1 0.195514 0.393561
0.0343786 0.219135 0.280415
0.187915 0.218723 0.281834
0.378042 0.222492 0.287877
0.564401 0.240513 0.296635
0.717845 0.258656 0.307698
0.842832 0.276707 0.32224
0.932158 0.297154 0.340307
1 0.315999 0.357656
1 0.328542 0.369039
0.0209354 0.394461 0.27631
0.167132 0.391974 0.279286
0.335805 0.394873 0.294286
0.523995 0.409445 0.291341
0.68397 0.413443 0.292088
0.811353 0.424125 0.305684
0.90898 0.439567 0.322881
0.981933 0.45623 0.34139
1 0.468345 0.352895
0.0377966 0.569619 0.296223
0.170871 0.564538 0.296162
0.331243 0.563073 0.308202
0.484642 0.565408 0.321981
0.639399 0.580011 0.338415
0.777783 0.580957 0.314824
0.882658 0.584588 0.314916
0.959792 0.595804 0.332586
1 0.605936 0.345892
0.0619059 0.723247 0.322194
0.188235 0.716289 0.319203
0.3364 0.712169 0.327291
0.479866 0.710781 0.335332
0.619425 0.712337 0.351171
0.7393 0.721157 0.375067
0.846769 0.732906 0.367254
0.938949 0.735241 0.358694
1 0.734096 0.353536
0.0943313 0.858198 0.356268
0.216754 0.849271 0.350622
0.355489 0.842161 0.354376
0.500511 0.836423 0.365072
0.619898 0.833234 0.366598
0.735225 0.832853 0.378759
0.826337 0.836622 0.392569
0.909026 0.843549 0.396796
0.993378 0.846189 0.389227
0.121065 0.974929 0.386419
0.24181 0.962768 0.378439
0.375753 0.951141 0.378714
0.516503 0.940246 0.386725
0.631357 0.932235 0.385351
0.732937 0.926818 0.387991
0.822293 0.925566 0.39617
0.898695 0.92604 0.404181
0.972412 0.927169 0.408453
0.123888 1 0.391257
0.244755 1 0.383261
0.377844 1 0.383368
0.51635 1 0.390555
0.635904 1 0.394003
0.73228 1 0.3935
0.816709 1 0.398047
0.892653 1 0.404059
0.96437 1 0.409369
0.118288 1 0.386526
0.236637 1 0.376608
0.366567 1 0.375006
0.503243 1 0.380865
0.623987 1 0.385016
0.719463 1 0.383215
0.803098 1 0.387289
0.880308 1 0.393561
0.953841 1 0.400061
0.0686961 0.0867628 0.436728
0.22829 0.0845197 0.438544
0.415564 0.0563668 0.439155
0.602396 0.0747692 0.437125
0.751186 0.134173 0.46273
0.871351 0.169512 0.485466
0.956603 0.193454 0.504036
1 0.211292 0.519783
1 0.225071 0.533501
0.0630808 0.240131 0.412253
0.202869 0.236423 0.41352
0.372686 0.221057 0.416663
0.562219 0.233341 0.420371
0.715892 0.272801 0.442954
0.841505 0.296345 0.459007
0.933227 0.316381 0.474632
1 0.331121 0.486519
1 0.343496 0.49778
0.0300298 0.396536 0.398596
0.170703 0.393576 0.398779
0.338293 0.397208 0.406165
0.521599 0.409354 0.413504
0.680903 0.422904 0.425284
0.809705 0.4365 0.438148
0.910155 0.451957 0.452369
0.982727 0.466682 0.466117
1 0.477806 0.475959
0.0339971 0.571267 0.405661
0.166873 0.56553 0.40444
0.329702 0.564004 0.413947
0.486976 0.5664 0.42945
0.640955 0.581079 0.442466
0.777539 0.581659 0.4271
0.881407 0.590982 0.438163
0.960189 0.602106 0.452415
1 0.611368 0.463111
0.0592355 0.72433 0.427176
0.185504 0.717281 0.423682
0.335195 0.712871 0.430549
0.485985 0.710689 0.442298
0.621225 0.713222 0.455009
0.741421 0.723018 0.4766
0.847517 0.733104 0.468956
0.939025 0.734005 0.460487
1 0.732525 0.456275
0.0907454 0.858808 0.458152
0.21297 0.849485 0.452003
0.350271 0.841962 0.453605
0.498024 0.835828 0.46392
0.621149 0.832502 0.467582
0.734859 0.832273 0.478523
0.826093 0.836255 0.492058
0.908766 0.842786 0.494759
0.991989 0.844465 0.486976
0.115328 0.974655 0.485817
0.234913 0.96202 0.476722
0.364309 0.950149 0.473426
0.507958 0.938598 0.480751
0.631327 0.930343 0.484474
0.731243 0.925093 0.485451
0.820554 0.923812 0.493202
0.897337 0.924208 0.501106
0.970947 0.925353 0.504784
0.116991 1 0.489723
0.23566 1 0.480018
0.362264 1 0.475608
0.505714 1 0.483116
0.635264 1 0.492653
0.730739 1 0.490196
0.814267 1 0.494301
0.890791 1 0.500221
0.962432 0.998886 0.505089
0.110552 1 0.484138
0.227146 1 0.472862
0.3514 1 0.467338
0.492454 1 0.473014
0.62179 1 0.482063
0.717815 1 0.479744
0.800763 1 0.483131
0.878386 1 0.489448
0.952026 1 0.495918
0.0899519 0.111574 0.563149
0.241443 0.108919 0.563577
0.418555 0.098436 0.569039
0.594385 0.0647288 0.553811
0.751431 0.11162 0.562356
0.873213 0.165621 0.589975
0.958358 0.209567 0.62092
1 0.237186 0.643198
1 0.246067 0.652506
0.083238 0.260594 0.536431
0.216602 0.253834 0.536797
0.378561 0.246479 0.542092
0.554955 0.22266 0.532799
0.715984 0.258595 0.54519
0.841611 0.304097 0.573388
0.934905 0.341451 0.601221
1 0.362921 0.617731
1 0.374899 0.628305
0.0569924 0.4112 0.520333
0.193133 0.408118 0.520058
0.349874 0.409461 0.522972
0.516808 0.403433 0.524376
0.67834 0.429923 0.543999
0.808347 0.448936 0.559091
0.910384 0.465324 0.572412
0.98381 0.477867 0.58265
1 0.488197 0.591501
0.0372168 0.572061 0.514992
0.168627 0.566232 0.512825
0.325139 0.565377 0.515816
0.48806 0.565682 0.52781
0.642084 0.578912 0.537209
0.777157 0.585397 0.539513
0.881025 0.596689 0.551843
0.961028 0.607492 0.563287
1 0.615671 0.571557
0.0543679 0.725948 0.527306
0.180682 0.718669 0.523369
0.330312 0.713802 0.527565
0.48542 0.711009 0.538643
0.621195 0.713817 0.550759
0.743923 0.725063 0.570733
0.849744 0.732631 0.562829
0.939925 0.731716 0.555444
1 0.734096 0.559899
0.085359 0.860136 0.55494
0.207538 0.850538 0.548043
0.345129 0.842512 0.548089
0.490013 0.835843 0.554055
0.622522 0.832334 0.562478
0.734279 0.832258 0.571633
0.82652 0.836652 0.58529
0.909667 0.842863 0.586191
0.991348 0.842802 0.5776
0.107851 0.975128 0.579599
0.227543 0.962066 0.570031
0.356954 0.949767 0.565499
0.494011 0.937819 0.566567
0.629984 0.928969 0.576806
0.730724 0.923964 0.577096
0.819409 0.92282 0.584237
0.896651 0.923568 0.592325
0.970245 0.924575 0.594842
0.108522 1 0.582223
0.227207 1 0.571939
0.354253 1 0.566766
0.4878 1 0.566323
0.626001 1 0.578042
0.729458 1 0.580957
0.812222 1 0.584131
0.889494 0.999069 0.590158
0.961257 0.997742 0.595056
0.101793 1 0.575952
0.218616 1 0.564462
0.342611 1 0.557717
0.473884 1 0.556039
0.611734 1 0.567056
0.716594 1 0.570428
0.799161 1 0.573312
0.877791 1 0.580133
0.950866 1 0.585687
0.112245 0.136889 0.677409
0.258259 0.133242 0.676295
0.427192 0.127871 0.678645
0.594476 0.0999619 0.674907
0.749355 0.0973678 0.6589
0.875959 0.150362 0.677272
0.960952 0.197452 0.70338
1 0.225574 0.72314
1 0.234913 0.732677
0.102358 0.281712 0.649439
0.23299 0.273701 0.649409
0.388388 0.267735 0.652598
0.555611 0.249485 0.653986
0.71339 0.244419 0.639658
0.844419 0.289357 0.659617
0.937209 0.330846 0.684825
1 0.36524 0.708446
1 0.37464 0.716731
0.0816663 0.429191 0.629282
0.215412 0.426078 0.628794
0.36614 0.427054 0.631403
0.520088 0.418585 0.637858
0.676936 0.415671 0.631266
0.809506 0.446799 0.652644
0.910338 0.476997 0.675746
0.98558 0.502159 0.695262
1 0.514321 0.705287
0.0535439 0.581384 0.622721
0.183719 0.575509 0.620722
0.334096 0.572137 0.620661
0.487083 0.567742 0.619898
0.640177 0.575479 0.628489
0.776638 0.591119 0.643259
0.881239 0.604273 0.655619
0.962219 0.614481 0.664775
1 0.621195 0.670481
0.0549935 0.727733 0.622522
0.180636 0.720241 0.61825
0.325444 0.715312 0.618006
0.479835 0.7122 0.624552
0.620218 0.713283 0.63592
0.746319 0.726421 0.654536
0.852735 0.729854 0.646082
0.940475 0.732708 0.6486
1 0.736446 0.654917
0.0778515 0.862242 0.642969
0.200504 0.852354 0.636103
0.338582 0.843961 0.634852
0.483635 0.836469 0.638086
0.620951 0.83212 0.64715
0.733043 0.832624 0.655375
0.827466 0.83772 0.669795
0.911498 0.843214 0.668467
0.99118 0.840894 0.658946
0.0981918 0.976669 0.664363
0.218341 0.963058 0.654795
0.349203 0.950057 0.649927
0.486366 0.938003 0.648844
0.618036 0.928512 0.653239
0.730465 0.923964 0.660258
0.818235 0.922728 0.66656
0.896757 0.923674 0.675105
0.97084 0.924834 0.67657
0.0977646 1 0.665644
0.216724 1 0.655253
0.344518 1 0.649485
0.478874 1 0.647517
0.608637 1 0.651148
0.729412 1 0.664042
0.811337 1 0.665827
0.888472 0.998642 0.671733
0.960906 0.997482 0.676692
0.0909285 1 0.658778
0.208148 1 0.647349
0.333074 1 0.640208
0.465446 1 0.637385
0.5944 1 0.640375
0.717098 1 0.654169
0.798596 1 0.655161
0.877165 1 0.662028
0.950423 1 0.667277
0.135882 0.162219 0.772
0.278416 0.158297 0.770489
0.44033 0.15378 0.771603
0.607584 0.13579 0.776593
0.756481 0.110079 0.758144
0.878187 0.140719 0.754437
0.964767 0.19028 0.776547
1 0.217151 0.792844
1 0.227085 0.802686
0.123934 0.304143 0.744121
0.252232 0.29546 0.743709
0.402914 0.290288 0.746227
0.567941 0.281376 0.752346
0.720043 0.257313 0.739849
0.84535 0.27985 0.735943
0.940169 0.322148 0.756817
1 0.356542 0.776837
1 0.365927 0.785061
0.104143 0.448524 0.720806
0.237461 0.445808 0.720928
0.382589 0.445548 0.724239
0.530495 0.438926 0.729686
0.680873 0.420829 0.724269
0.810941 0.436332 0.725032
0.914031 0.467231 0.74461
0.988098 0.498421 0.765835
1 0.510613 0.775006
0.0771801 0.594049 0.712276
0.206638 0.588067 0.71043
0.352056 0.584573 0.70988
0.499474 0.581613 0.709422
0.640116 0.574121 0.711223
0.777111 0.590021 0.721874
0.881758 0.613077 0.741268
0.963943 0.630686 0.755611
1 0.640604 0.763561
0.0642405 0.73167 0.707561
0.189487 0.723537 0.703532
0.331685 0.718242 0.702083
0.478523 0.714717 0.702739
0.618051 0.713558 0.707698
0.746593 0.724147 0.722072
0.854185 0.730419 0.723934
0.941238 0.736797 0.731487
1 0.739727 0.735683
0.0767376 0.864927 0.721004
0.198657 0.854505 0.714153
0.333684 0.846082 0.710307
0.477592 0.838331 0.710369
0.615854 0.833051 0.716564
0.732708 0.833295 0.725978
0.829068 0.839643 0.741192
0.914275 0.843519 0.737331
0.991455 0.83859 0.727245
0.0867323 0.979522 0.736233
0.207965 0.965316 0.726909
0.340063 0.951659 0.721325
0.479377 0.939254 0.719219
0.612192 0.929259 0.721889
0.730083 0.924239 0.730816
0.817685 0.923613 0.736263
0.897932 0.924865 0.745388
0.97258 0.926253 0.746044
0.0849165 1 0.736141
0.204608 1 0.726024
0.333944 1 0.719692
0.470497 1 0.717037
0.601221 1 0.719066
0.720088 1 0.727657
0.811658 1 0.735515
0.88835 0.999222 0.740688
0.961334 0.998093 0.7458
0.0783398 1 0.728679
0.196185 1 0.71754
0.322438 1 0.710292
0.457099 1 0.706828
0.586694 1 0.70808
0.705562 1 0.716289
0.799039 1 0.725032
0.87689 1 0.731197
0.950896 1 0.736751
0.163943 0.190295 0.857527
0.302815 0.185809 0.855497
0.457725 0.181186 0.855406
0.619791 0.173083 0.859297
0.765042 0.143679 0.851347
0.88658 0.143435 0.836057
0.968673 0.185657 0.844724
1 0.212848 0.859373
1 0.222019 0.86894
0.148379 0.328191 0.828946
0.274937 0.319402 0.829099
0.421134 0.314702 0.830716
0.579919 0.310536 0.835142
0.72694 0.287098 0.832441
0.853452 0.282109 0.817975
0.943832 0.316808 0.824796
1 0.351965 0.841733
1 0.361685 0.849882
0.12636 0.469352 0.804273
0.257618 0.465599 0.804196
0.39971 0.464485 0.807935
0.542046 0.456626 0.812085
0.689586 0.442496 0.815625
0.816602 0.43331 0.800977
0.916472 0.460044 0.809628
0.990906 0.492561 0.828
1 0.504036 0.836378
0.0991379 0.609049 0.793332
0.227832 0.603037 0.791775
0.368429 0.599268 0.790478
0.512413 0.596765 0.790051
0.650034 0.592416 0.796201
0.779126 0.579553 0.788174
0.884916 0.6047 0.802487
0.966217 0.628016 0.819272
1 0.641581 0.829404
0.0773022 0.747524 0.792676
0.202945 0.739254 0.788754
0.341588 0.732555 0.785916
0.485359 0.725643 0.783322
0.620554 0.719753 0.781689
0.743191 0.718837 0.784329
0.853819 0.735027 0.798856
0.941634 0.745373 0.80882
1 0.750072 0.813489
0.0830396 0.867506 0.794354
0.204547 0.856931 0.787732
0.337758 0.847974 0.782971
0.477104 0.84007 0.780011
0.610636 0.834485 0.780331
0.731746 0.832898 0.788785
0.829786 0.840894 0.804135
0.917296 0.841794 0.797513
0.991928 0.839902 0.795804
0.0821088 0.981811 0.804761
0.203418 0.967041 0.7953
0.333394 0.953567 0.788128
0.471443 0.941222 0.783337
0.606226 0.930694 0.784558
0.724697 0.925048 0.79089
0.818357 0.924941 0.799207
0.899382 0.926635 0.808454
0.974624 0.927871 0.808194
0.0763256 1 0.802441
0.193286 1 0.79144
0.32166 1 0.783566
0.46099 1 0.780072
0.594339 1 0.780865
0.711894 1 0.786206
0.811902 1 0.797909
0.888716 1 0.802502
0.962402 0.99939 0.807904
0.0678416 1 0.794034
0.182986 1 0.781918
0.309697 1 0.773861
0.447349 1 0.769787
0.579812 1 0.770123
0.697459 1 0.775097
0.798627 1 0.787518
0.876966 1 0.793301
0.95198 1 0.798917
0.194812 0.220539 0.940734
0.330388 0.215442 0.938033
0.478798 0.210575 0.937285
0.633936 0.206104 0.939742
0.780774 0.182544 0.944686
0.893355 0.168048 0.927611
0.972717 0.188891 0.919844
1 0.209354 0.928115
1 0.219776 0.937545
0.173571 0.353719 0.91191
0.299855 0.345052 0.911818
0.441871 0.340475 0.912902
0.594034 0.336873 0.916152
0.742611 0.320745 0.923079
0.863645 0.304616 0.908873
0.947127 0.317418 0.899214
1 0.346624 0.906386
1 0.356344 0.9149
0.146319 0.490288 0.885954
0.277714 0.486122 0.886549
0.418662 0.484718 0.889494
0.556191 0.476432 0.892226
0.701045 0.469276 0.89749
0.825422 0.451621 0.890288
0.921553 0.456809 0.881117
0.993957 0.488762 0.891142
1 0.499092 0.898497
0.119097 0.625269 0.872175
0.246967 0.619058 0.870573
0.384192 0.615076 0.868971
0.525612 0.612589 0.868772
0.660105 0.607843 0.87451
0.786099 0.596414 0.875868
0.889616 0.596567 0.867658
0.968505 0.621607 0.878889
1 0.635599 0.887785
0.0961471 0.759243 0.870024
0.221149 0.750561 0.865751
0.356313 0.743648 0.862486
0.497185 0.736736 0.859449
0.631098 0.73167 0.857572
0.748837 0.728466 0.860746
0.854658 0.726207 0.85919
0.943206 0.74464 0.872114
1 0.755871 0.881361
0.0834211 0.878019 0.871885
0.205875 0.867124 0.865141
0.338567 0.857053 0.859098
0.478157 0.846967 0.853819
0.611032 0.838834 0.850767
0.727123 0.834501 0.850919
0.825742 0.836652 0.857908
0.917571 0.842634 0.862684
0.992554 0.844678 0.866178
0.0832837 0.983185 0.873503
0.205112 0.967987 0.863935
0.335012 0.954223 0.856382
0.471061 0.941772 0.849943
0.601267 0.932174 0.846952
0.719158 0.926131 0.849928
0.817716 0.925414 0.858747
0.900298 0.928176 0.868055
0.976928 0.929305 0.867491
0.0766461 1 0.870222
0.193713 1 0.859236
0.319539 1 0.850126
0.453834 1 0.84332
0.585718 1 0.841031
0.705348 1 0.844968
0.804776 1 0.853117
0.889479 1 0.862196
0.963867 1 0.867414
0.0678874 1 0.861341
0.183017 1 0.849363
0.306127 1 0.839704
0.438956 1 0.832364
0.571298 1 0.830533
0.691127 1 0.834272
0.792111 1 0.843473
0.878187 1 0.852979
0.953384 1 0.858442
