Modular_evening_Display_LUT_v1_33x33.cube
TITLE "Generated by Resolve"
LUT_3D_SIZE 33
0.0130617 0.0146334 0.0121614
0.068101 0.0162051 0.0131075
0.120928 0.0213779 0.0159762
0.175082 0.0285039 0.016907
0.227604 0.0348211 0.0166934
0.279347 0.0396429 0.015198
0.330434 0.044358 0.0128328
0.38172 0.0492561 0.0117342
0.431724 0.0543069 0.0116121
0.480278 0.0597848 0.0133669
0.525292 0.0651255 0.0204166
0.568246 0.0703441 0.0281987
0.609461 0.0756237 0.0338293
0.648554 0.0807965 0.0394903
0.68571 0.0859236 0.0449683
0.721233 0.0910658 0.0504158
0.75523 0.0962081 0.0558328
0.787488 0.101427 0.0612802
0.818433 0.106645 0.066804
0.847333 0.111986 0.0721752
0.872984 0.117357 0.0776837
0.894926 0.122789 0.0833753
0.914733 0.128328 0.0890059
0.934295 0.133883 0.0944381
0.953582 0.139452 0.100252
0.972412 0.145098 0.105928
0.991897 0.15053 0.111482
1 0.154513 0.115221
1 0.157366 0.11754
1 0.160204 0.11986
1 0.162997 0.122225
1 0.165866 0.124483
1 0.168795 0.12697
0.00787366 0.0665599 0.0148165
0.0560922 0.06598 0.0192111
0.108766 0.0693217 0.0134737
0.162158 0.0725261 0.0129549
0.21416 0.0755016 0.0115663
0.265354 0.0782788 0.00906386
0.315724 0.0814679 0.00588998
0.366598 0.085008 0.0028687
0.416602 0.089128 0.00146487
0.465385 0.0937057 0.00383001
0.511284 0.0986343 0.0116579
0.554696 0.103517 0.0196384
0.596048 0.108446 0.0254673
0.635569 0.113252 0.0312352
0.673075 0.118196 0.0367895
0.709026 0.123049 0.0422065
0.743145 0.127901 0.0475166
0.775952 0.13312 0.0531014
0.806989 0.138308 0.0587015
0.83624 0.143664 0.0642405
0.863828 0.149081 0.0698558
0.886427 0.15465 0.0755474
0.90663 0.160235 0.0814221
0.926116 0.165881 0.0869917
0.945312 0.171542 0.0927596
0.964385 0.177172 0.0986648
0.983352 0.182849 0.104479
1 0.188144 0.109636
1 0.191211 0.112215
1 0.194141 0.114519
1 0.197055 0.116884
1 0.199969 0.119188
1 0.203021 0.12163
0.00859083 0.113817 0.022446
0.0551461 0.112795 0.023743
0.0947127 0.112123 0.0257572
0.146715 0.116228 0.0229496
0.202701 0.120348 0.0152285
0.25452 0.121828 0.0105745
0.305089 0.123598 0.0075227
0.35523 0.125612 0.00509651
0.405295 0.128344 0.00433356
0.454292 0.131884 0.00669871
0.500572 0.136065 0.0124971
0.544472 0.140093 0.0178683
0.586313 0.144274 0.0229953
0.626001 0.148562 0.0281224
0.663905 0.153063 0.0335393
0.700206 0.15758 0.038941
0.734905 0.16231 0.0441444
0.767865 0.167208 0.0495308
0.799176 0.172229 0.0550088
0.828626 0.177386 0.0604715
0.856748 0.182574 0.0661021
0.880354 0.188113 0.0718395
0.900954 0.19353 0.0772564
0.920531 0.19913 0.0831311
0.939773 0.204807 0.0890211
0.958694 0.210544 0.0948653
0.977707 0.21619 0.100649
0.996948 0.221851 0.106493
1 0.225498 0.10956
1 0.22858 0.112123
1 0.231647 0.114366
1 0.234638 0.11664
1 0.237644 0.119158
0.00747692 0.160021 0.0269474
0.0506447 0.158511 0.0269932
0.0905013 0.158465 0.0278477
0.132464 0.157671 0.0308995
0.182254 0.160937 0.0310369
0.240909 0.16669 0.0200961
0.294026 0.167636 0.0119478
0.344762 0.16907 0.0107881
0.395117 0.17113 0.0108034
0.444312 0.173907 0.0123445
0.491157 0.176959 0.0149386
0.535454 0.180133 0.018677
0.577585 0.183398 0.0229648
0.617609 0.186755 0.0274052
0.655634 0.190433 0.0323033
0.692088 0.194446 0.0372931
0.727108 0.198734 0.0424506
0.760388 0.203235 0.0478218
0.792187 0.20798 0.053254
0.821897 0.212909 0.0585794
0.849943 0.218006 0.0639353
0.874784 0.223301 0.0695354
0.896147 0.228748 0.075288
0.91577 0.234272 0.0810407
0.93489 0.239826 0.0866407
0.953857 0.245457 0.0925917
0.972381 0.250828 0.0981918
0.991012 0.256336 0.103929
1 0.260594 0.107912
1 0.263752 0.110231
1 0.266865 0.112596
1 0.269886 0.114992
1 0.272999 0.117327
0.00631724 0.206439 0.0313725
0.0460212 0.204471 0.0306706
0.086656 0.204227 0.0322118
0.127382 0.204532 0.0335851
0.170657 0.203449 0.0372168
0.21828 0.205951 0.0409094
0.277226 0.213382 0.0305791
0.333379 0.214054 0.0148013
0.384054 0.215503 0.0146334
0.433722 0.217609 0.0156863
0.481315 0.220066 0.0176699
0.526116 0.222461 0.020798
0.568689 0.22501 0.0244755
0.609262 0.227695 0.0285191
0.647837 0.230655 0.0328527
0.684657 0.233951 0.0373388
0.719661 0.237583 0.0421607
0.753033 0.241291 0.0469062
0.784955 0.245655 0.0520943
0.81503 0.250248 0.0575265
0.843259 0.255116 0.0629282
0.868849 0.260166 0.0683452
0.891157 0.265354 0.0736706
0.910857 0.270527 0.0793317
0.929778 0.275883 0.0849317
0.948516 0.281254 0.0906233
0.96733 0.28658 0.096376
0.98584 0.291997 0.102022
1 0.296712 0.106798
1 0.300023 0.109377
1 0.303136 0.111635
1 0.306111 0.113649
1 0.30901 0.115877
0.00646983 0.252277 0.0354009
0.0435492 0.250019 0.0345006
0.0818341 0.2495 0.0355383
0.123796 0.249958 0.0378424
0.164096 0.250401 0.0395514
0.208835 0.249714 0.0445716
0.255726 0.252049 0.0498054
0.312245 0.259831 0.04448
0.369314 0.262684 0.0301061
0.421515 0.263111 0.0214237
0.470283 0.264698 0.0205386
0.515938 0.266651 0.0230869
0.55903 0.268528 0.0262608
0.600122 0.270497 0.0299229
0.639063 0.272709 0.033875
0.676097 0.275303 0.038056
0.71162 0.278202 0.0424659
0.74522 0.281544 0.0470893
0.777279 0.285252 0.0518502
0.807416 0.289509 0.0568856
0.836088 0.293904 0.0622416
0.862379 0.298375 0.0673228
0.885756 0.303212 0.0726787
0.905257 0.307988 0.0779889
0.9243 0.313039 0.0833448
0.942946 0.318151 0.0888228
0.961563 0.323201 0.0943923
0.97995 0.328313 0.100069
0.998962 0.333501 0.10573
1 0.336797 0.108049
1 0.339727 0.110307
1 0.342626 0.112367
1 0.345602 0.114488
0.00877394 0.298497 0.0404212
0.0442664 0.295888 0.0394751
0.0804761 0.295201 0.0400092
0.12134 0.295415 0.0425727
0.162188 0.29604 0.0447242
0.20235 0.296056 0.0467536
0.24744 0.295766 0.0527504
0.293187 0.297215 0.0596628
0.347311 0.306065 0.0595712
0.40502 0.311299 0.0462654
0.457481 0.311955 0.0338445
0.505333 0.312047 0.0279088
0.549325 0.313146 0.029572
0.590631 0.314275 0.0324712
0.630121 0.31574 0.0356909
0.66746 0.317601 0.0391546
0.703075 0.319905 0.0431525
0.737133 0.322591 0.0474556
0.76939 0.325658 0.0519722
0.799695 0.329381 0.0568399
0.828229 0.333288 0.0618143
0.855039 0.337499 0.0668193
0.879133 0.341939 0.0719615
0.89987 0.346471 0.0771649
0.918822 0.35111 0.082536
0.937255 0.355856 0.0879377
0.955703 0.360601 0.0931106
0.974121 0.36553 0.0987564
0.993011 0.370245 0.10425
1 0.373846 0.107576
1 0.376791 0.109758
1 0.37969 0.111727
1 0.382666 0.113848
0.0119326 0.344671 0.0459754
0.0466163 0.342123 0.0451209
0.0818494 0.341344 0.0455329
0.119905 0.341253 0.047364
0.161624 0.341848 0.0512398
0.200656 0.342184 0.0525978
0.24062 0.342351 0.0551614
0.286931 0.342351 0.061326
0.33106 0.343023 0.0690776
0.382361 0.352361 0.0740063
0.439139 0.35967 0.0625162
0.49099 0.360906 0.0495155
0.538201 0.358907 0.036408
0.580789 0.358862 0.0353857
0.620478 0.35964 0.0379034
0.658228 0.360769 0.0412757
0.694377 0.36231 0.0449836
0.728542 0.364385 0.0489204
0.760815 0.366796 0.052903
0.791424 0.370169 0.0571603
0.819974 0.373297 0.0616617
0.846693 0.37702 0.0665446
0.871855 0.380911 0.0715343
0.893965 0.385046 0.0763867
0.912734 0.389273 0.0814679
0.931273 0.393545 0.0867475
0.949615 0.39791 0.0919661
0.967865 0.402594 0.0974594
0.98674 0.40708 0.102922
1 0.411124 0.107469
1 0.414038 0.109529
1 0.416861 0.111528
1 0.419715 0.113695
0.0161593 0.390249 0.0519417
0.0498054 0.38793 0.0512398
0.0842145 0.387076 0.0516365
0.120363 0.386831 0.0533761
0.16054 0.387182 0.0567178
0.201572 0.387854 0.0597696
0.239353 0.388418 0.0603952
0.280903 0.388678 0.0640726
0.326986 0.389075 0.0704509
0.370871 0.390036 0.0782483
0.418296 0.397055 0.0847944
0.472358 0.405951 0.0783856
0.522606 0.408286 0.0660563
0.568322 0.406806 0.0540017
0.610407 0.404654 0.0456092
0.648981 0.403632 0.0429999
0.685176 0.404639 0.0463874
0.719783 0.406012 0.0500954
0.752438 0.407874 0.0540322
0.783062 0.410559 0.0583963
0.811749 0.413428 0.0628061
0.838758 0.416632 0.0667887
0.864225 0.420096 0.0715648
0.888502 0.423728 0.076463
0.90724 0.427619 0.0814527
0.925551 0.431693 0.0864118
0.944045 0.436011 0.0919203
0.962188 0.440238 0.0972915
0.980346 0.444465 0.102708
0.99913 0.448554 0.108202
1 0.451392 0.110369
1 0.454078 0.112276
1 0.456901 0.114305
0.0201877 0.435721 0.0587167
0.053727 0.433402 0.0580148
0.0872053 0.43241 0.0581826
0.121996 0.432029 0.0599832
0.160266 0.432212 0.0623789
0.201953 0.432654 0.0661479
0.240787 0.433417 0.067689
0.278859 0.43386 0.068574
0.321233 0.434211 0.0729992
0.367086 0.434897 0.0797131
0.410925 0.436439 0.0877699
0.454673 0.441444 0.0956283
0.505287 0.450797 0.094316
0.553719 0.453941 0.0822766
0.597726 0.453056 0.0709544
0.638331 0.450324 0.0601663
0.676234 0.447929 0.0528725
0.711223 0.447456 0.0518502
0.744106 0.448951 0.0555428
0.774685 0.450782 0.0594492
0.804044 0.453208 0.0639353
0.8309 0.45597 0.0682841
0.85658 0.458976 0.0728161
0.881056 0.462333 0.076997
0.901671 0.466026 0.0820783
0.920409 0.469764 0.0871901
0.938735 0.473701 0.0923629
0.956741 0.477577 0.0974594
0.975036 0.481559 0.103075
0.993652 0.485374 0.108537
1 0.488502 0.111742
1 0.491203 0.113695
1 0.494057 0.115831
0.0241398 0.480949 0.0657206
0.0577707 0.478569 0.0649729
0.0905013 0.477531 0.0652934
0.124239 0.476997 0.0666056
0.161212 0.476936 0.0686046
0.201373 0.477241 0.0716869
0.2421 0.477562 0.074815
0.279133 0.47805 0.0746319
0.318502 0.478386 0.0770428
0.3608 0.479026 0.0819104
0.406424 0.480049 0.0889754
0.449042 0.481392 0.096849
0.489479 0.484291 0.105608
0.536217 0.493248 0.108904
0.582513 0.497185 0.0976883
0.62501 0.497017 0.0867323
0.66421 0.49514 0.0769207
0.700999 0.49247 0.0677348
0.735653 0.490089 0.059678
0.766659 0.491142 0.062089
0.795758 0.492744 0.065156
0.822889 0.49514 0.0694133
0.848814 0.497856 0.0740368
0.873625 0.500786 0.0786297
0.895705 0.504189 0.0835126
0.915114 0.507774 0.0879225
0.933425 0.511147 0.09308
0.951354 0.514717 0.0982681
0.969345 0.518334 0.103578
0.987961 0.521813 0.108827
1 0.525093 0.113207
1 0.527871 0.115312
1 0.530434 0.117189
0.0278782 0.524697 0.0723735
0.0615091 0.522667 0.0715953
0.0937514 0.521416 0.0721447
0.126665 0.52076 0.0730144
0.162387 0.520607 0.0745861
0.201251 0.5205 0.0771191
0.242252 0.520623 0.0806897
0.281743 0.520836 0.0826429
0.31812 0.521141 0.0822766
0.357885 0.521324 0.0857404
0.400061 0.522011 0.0910201
0.443565 0.522789 0.0978714
0.484962 0.523949 0.105669
0.523827 0.526299 0.11426
0.566232 0.533211 0.119844
0.609781 0.538216 0.112871
0.650858 0.539559 0.102876
0.688838 0.539132 0.0942092
0.724147 0.537438 0.0860304
0.756817 0.535607 0.0789197
0.78706 0.534752 0.0749523
0.815122 0.53489 0.0733959
0.841138 0.536538 0.0755779
0.866087 0.539193 0.0801404
0.889464 0.542321 0.0849622
0.910246 0.545235 0.0898451
0.928344 0.548333 0.094789
0.946242 0.551644 0.0992905
0.964141 0.554925 0.104509
0.982803 0.558221 0.11014
1 0.561639 0.115602
1 0.563989 0.117189
1 0.566415 0.118959
0.0325933 0.567285 0.0793469
0.065919 0.564965 0.078294
0.0979629 0.563653 0.0788739
0.129809 0.562783 0.0791791
0.164675 0.562173 0.0804456
0.202213 0.561837 0.0825971
0.242039 0.561608 0.0856184
0.28307 0.56144 0.0889906
0.319921 0.561532 0.0892195
0.357 0.561837 0.0902113
0.396094 0.561929 0.0941787
0.437354 0.56228 0.0996262
0.479789 0.563012 0.106706
0.519768 0.564141 0.114305
0.557015 0.566247 0.122332
0.595514 0.571679 0.129381
0.636683 0.577813 0.127184
0.676005 0.580484 0.118456
0.712032 0.581033 0.110857
0.745403 0.580591 0.104143
0.776425 0.579721 0.0981155
0.805127 0.578958 0.0929732
0.832639 0.578759 0.0891585
0.85864 0.578607 0.0862593
0.883009 0.579705 0.0870832
0.90457 0.582361 0.0917525
0.92343 0.585046 0.0963607
0.941192 0.587915 0.10132
0.959182 0.59089 0.106645
0.977737 0.593942 0.111406
0.995605 0.596994 0.116915
1 0.599313 0.119463
1 0.601526 0.121111
0.0378882 0.608011 0.0861524
0.0710918 0.6056 0.085069
0.10248 0.604028 0.0852827
0.133989 0.603006 0.0855573
0.16788 0.602274 0.0865492
0.204471 0.601678 0.0882887
0.243061 0.601236 0.0909438
0.284153 0.600748 0.0946517
0.323934 0.600793 0.0974441
0.35845 0.600931 0.0965591
0.396033 0.60087 0.0991989
0.434012 0.601053 0.10338
0.474418 0.601495 0.10901
0.515419 0.602289 0.115877
0.553765 0.60351 0.122942
0.589868 0.605646 0.130434
0.625101 0.60972 0.138247
0.66273 0.6159 0.14049
0.700023 0.619715 0.133013
0.733928 0.621393 0.126711
0.765362 0.62208 0.121386
0.794614 0.622507 0.117021
0.822156 0.622644 0.113069
0.8486 0.622232 0.109133
0.873747 0.621805 0.105348
0.897566 0.621637 0.102419
0.918441 0.622415 0.102419
0.936812 0.624369 0.105089
0.954574 0.62623 0.108537
0.972839 0.628656 0.113558
0.990616 0.631312 0.118837
1 0.633585 0.122026
1 0.635767 0.123262
0.0440223 0.647608 0.0935378
0.0768902 0.644816 0.0922103
0.107866 0.643091 0.0921187
0.139086 0.642023 0.0923171
0.172229 0.641169 0.0931868
0.20798 0.640421 0.0946365
0.245869 0.639704 0.0970016
0.286107 0.639277 0.100542
0.327291 0.638926 0.104707
0.363653 0.638712 0.105608
0.398032 0.638773 0.105623
0.434852 0.638834 0.108995
0.471962 0.639017 0.1131
0.51136 0.639506 0.118608
0.550881 0.640635 0.12517
0.587549 0.641871 0.131701
0.621607 0.643534 0.138338
0.654154 0.646372 0.145968
0.688258 0.652308 0.152407
0.722805 0.65687 0.146532
0.75494 0.659785 0.141527
0.784558 0.661357 0.137118
0.812253 0.662348 0.133486
0.838666 0.662806 0.130205
0.863798 0.663066 0.127123
0.888182 0.663279 0.124376
0.911528 0.663478 0.121782
0.93254 0.663279 0.119127
0.950134 0.663447 0.118273
0.968399 0.663432 0.118044
0.986053 0.664637 0.120439
1 0.666896 0.124819
1 0.668849 0.126253
0.0506752 0.685481 0.101167
0.0833906 0.682765 0.0997635
0.114153 0.68101 0.0995956
0.145006 0.679759 0.0995651
0.177554 0.678798 0.100282
0.212696 0.677928 0.10161
0.250202 0.677363 0.104021
0.28954 0.676509 0.107088
0.330419 0.675761 0.11133
0.368963 0.675273 0.114229
0.402319 0.675273 0.113634
0.436988 0.675227 0.115206
0.47277 0.675181 0.118532
0.509514 0.675654 0.122759
0.547768 0.676173 0.12813
0.58497 0.677089 0.134096
0.620157 0.678386 0.140307
0.652613 0.679973 0.146502
0.683116 0.682261 0.153124
0.713756 0.687434 0.161227
0.745342 0.692134 0.158953
0.774899 0.695491 0.154818
0.802777 0.697673 0.151156
0.829374 0.699168 0.147921
0.85452 0.700328 0.145235
0.879225 0.701442 0.143175
0.90309 0.701991 0.140902
0.925841 0.702113 0.138582
0.945434 0.701946 0.136278
0.963699 0.701518 0.13402
0.981979 0.70103 0.132143
0.999741 0.70042 0.130816
1 0.70219 0.132296
0.0584115 0.722591 0.109545
0.0910201 0.719783 0.108141
0.121584 0.717983 0.107851
0.152132 0.716625 0.107683
0.184253 0.715511 0.108232
0.218936 0.71458 0.109483
0.255787 0.713771 0.111696
0.294469 0.712703 0.114519
0.334554 0.711711 0.118303
0.373907 0.71104 0.122164
0.408606 0.710689 0.122942
0.440909 0.710658 0.122621
0.476066 0.710674 0.125246
0.510597 0.710597 0.128359
0.546136 0.710765 0.132357
0.582925 0.711223 0.137514
0.618311 0.711971 0.143023
0.651896 0.713497 0.14902
0.682734 0.715099 0.154757
0.711086 0.717021 0.160479
0.738735 0.720943 0.168383
0.766751 0.725307 0.169299
0.794171 0.728832 0.166796
0.820935 0.731807 0.163928
0.846281 0.733883 0.161181
0.870726 0.735515 0.158831
0.894606 0.736645 0.156695
0.917617 0.737224 0.154635
0.939803 0.737606 0.152819
0.96025 0.737728 0.150973
0.978134 0.737209 0.148775
0.995834 0.737041 0.147616
1 0.738109 0.148486
0.0668803 0.758267 0.118441
0.0992142 0.755535 0.116808
0.129732 0.753597 0.116274
0.160067 0.752148 0.116213
0.191867 0.751171 0.116655
0.226368 0.750134 0.118029
0.262394 0.748943 0.119905
0.30013 0.747723 0.122255
0.339284 0.746578 0.125597
0.378683 0.745571 0.129549
0.415198 0.745083 0.132052
0.447181 0.74493 0.131579
0.479759 0.744717 0.132204
0.513664 0.744396 0.134829
0.547112 0.744244 0.137819
0.581979 0.744289 0.141787
0.617136 0.744854 0.146777
0.650736 0.745724 0.152041
0.682048 0.746914 0.157366
0.710658 0.748379 0.162539
0.737194 0.750134 0.167651
0.762615 0.753185 0.174014
0.787991 0.757122 0.177478
0.813306 0.760586 0.177371
0.838392 0.763729 0.175174
0.862943 0.766125 0.172656
0.886625 0.767681 0.170382
0.909697 0.769055 0.168536
0.932235 0.769863 0.166644
0.954269 0.770352 0.164965
0.974166 0.770199 0.163043
0.991867 0.770031 0.161746
1 0.770764 0.16202
0.0762341 0.793011 0.127901
0.108446 0.790066 0.126177
0.138659 0.788098 0.124987
0.168887 0.786648 0.125261
0.200427 0.785428 0.125643
0.234028 0.784054 0.126467
0.269429 0.782727 0.12813
0.306615 0.781338 0.130358
0.344961 0.780056 0.133333
0.383597 0.779034 0.136812
0.421759 0.778241 0.140658
0.454139 0.777676 0.14078
0.485069 0.777279 0.14023
0.517754 0.776745 0.141848
0.550469 0.776333 0.14435
0.583261 0.776379 0.147387
0.616754 0.776471 0.151263
0.650233 0.776944 0.155978
0.681453 0.777554 0.160601
0.710246 0.778592 0.16527
0.737255 0.780179 0.170138
0.762081 0.781826 0.174716
0.785718 0.784146 0.179889
0.809094 0.787182 0.184329
0.832364 0.790372 0.186419
0.855817 0.793256 0.18468
0.879255 0.795529 0.18233
0.902007 0.797253 0.180117
0.924651 0.798703 0.178302
0.946777 0.799451 0.17641
0.968917 0.799664 0.174578
0.988037 0.799878 0.173388
1 0.800366 0.173144
0.0861067 0.826398 0.137774
0.118105 0.823423 0.135805
0.148592 0.821576 0.134798
0.178302 0.819867 0.134676
0.209384 0.818311 0.134752
0.242649 0.816754 0.1355
0.277195 0.815244 0.13669
0.313619 0.813626 0.138552
0.351583 0.81239 0.141405
0.389654 0.811078 0.144671
0.42742 0.809918 0.148302
0.461677 0.809033 0.150072
0.491905 0.808377 0.149142
0.522988 0.807843 0.149462
0.5552 0.807279 0.151507
0.586618 0.806745 0.15375
0.618235 0.806699 0.156756
0.650446 0.806653 0.160449
0.681514 0.806821 0.164508
0.710506 0.807691 0.168856
0.737469 0.808576 0.173022
0.762325 0.809934 0.177295
0.785718 0.811414 0.181445
0.80798 0.813031 0.185657
0.829633 0.815412 0.190494
0.851255 0.817929 0.192691
0.873564 0.820447 0.192248
0.895613 0.822477 0.190311
0.91783 0.824155 0.18793
0.939879 0.825437 0.186099
0.96231 0.826154 0.184329
0.982986 0.826535 0.182925
1 0.826886 0.182116
0.0957809 0.858701 0.147433
0.127916 0.855879 0.145388
0.158007 0.85359 0.144198
0.187594 0.85182 0.143313
0.218387 0.850034 0.143801
0.251209 0.848249 0.14432
0.285237 0.846555 0.145266
0.321324 0.844984 0.147066
0.358495 0.843336 0.149477
0.395926 0.841703 0.152346
0.433036 0.840284 0.155596
0.469139 0.839078 0.158953
0.499428 0.8383 0.158236
0.529305 0.837568 0.157656
0.560159 0.836622 0.158587
0.591165 0.835996 0.160601
0.621073 0.835401 0.162509
0.651469 0.835081 0.165316
0.682185 0.835065 0.168917
0.710674 0.835172 0.172503
0.737667 0.835752 0.176303
0.762295 0.83653 0.179965
0.785565 0.837461 0.183551
0.807874 0.838758 0.187259
0.829023 0.840131 0.190921
0.849302 0.841794 0.194934
0.869749 0.84361 0.19733
0.890272 0.845518 0.198032
0.911803 0.847608 0.19675
0.933394 0.848966 0.194491
0.95555 0.849821 0.192187
0.976974 0.850706 0.190799
0.997208 0.851331 0.189853
0.105592 0.890105 0.157229
0.137392 0.886824 0.154788
0.167346 0.884398 0.153414
0.196719 0.882445 0.152422
0.227451 0.880537 0.1523
0.260151 0.878767 0.153262
0.293751 0.876844 0.153964
0.329061 0.874769 0.155306
0.365698 0.872862 0.157443
0.402472 0.871015 0.160052
0.439155 0.869413 0.163058
0.475563 0.868025 0.166644
0.507195 0.866743 0.167117
0.536171 0.86566 0.165957
0.565911 0.864775 0.16611
0.595773 0.863645 0.167132
0.625315 0.862821 0.168795
0.653834 0.862013 0.170581
0.683085 0.861524 0.173281
0.711345 0.861387 0.176471
0.737835 0.861357 0.179583
0.762448 0.861875 0.182895
0.785794 0.862593 0.186267
0.807843 0.863264 0.189395
0.828717 0.864073 0.192462
0.84892 0.865202 0.195712
0.86865 0.866438 0.1991
0.887892 0.86775 0.202106
0.907561 0.869169 0.202777
0.928206 0.870649 0.201572
0.949844 0.871778 0.19942
0.971237 0.872953 0.19765
0.991562 0.873732 0.196521
0.114656 0.919982 0.166064
0.146395 0.916701 0.163821
0.176242 0.914137 0.162234
0.205432 0.91194 0.161166
0.236301 0.910109 0.160937
0.268467 0.907881 0.161181
0.301671 0.90573 0.162127
0.336873 0.903593 0.16347
0.372793 0.901244 0.165179
0.40911 0.899214 0.167376
0.445396 0.897276 0.170184
0.480949 0.89543 0.173281
0.514488 0.89395 0.175357
0.543023 0.8925 0.173983
0.571328 0.891234 0.173053
0.600488 0.889891 0.17348
0.629435 0.888747 0.174746
0.657099 0.887648 0.176013
0.684459 0.886671 0.177646
0.711833 0.886137 0.180087
0.738201 0.886137 0.183017
0.762478 0.886107 0.185687
0.785306 0.886259 0.188418
0.807462 0.886778 0.191409
0.828367 0.887388 0.194232
0.848341 0.887984 0.196948
0.867887 0.888655 0.199649
0.886793 0.889372 0.202289
0.905333 0.890272 0.205325
0.924773 0.891569 0.206516
0.945022 0.892348 0.205417
0.965591 0.893294 0.203265
0.985885 0.894392 0.20209
0.122515 0.949538 0.174426
0.154452 0.945769 0.171786
0.184131 0.943053 0.169986
0.21355 0.940902 0.168917
0.244297 0.938323 0.168872
0.276097 0.935943 0.168643
0.309377 0.933669 0.169528
0.343969 0.931014 0.170733
0.379599 0.928634 0.172274
0.415213 0.92604 0.174075
0.450736 0.923613 0.176394
0.485969 0.921645 0.179385
0.519814 0.919676 0.181735
0.549401 0.918059 0.181353
0.576852 0.916457 0.179843
0.604837 0.914885 0.179416
0.632853 0.913268 0.179889
0.659876 0.911894 0.180667
0.686488 0.911116 0.182086
0.712444 0.91017 0.183673
0.73785 0.909468 0.185794
0.762249 0.909285 0.188342
0.784924 0.909163 0.190768
0.806882 0.909361 0.193332
0.827756 0.909712 0.195956
0.847623 0.909941 0.198306
0.867002 0.910201 0.200595
0.886046 0.910857 0.203143
0.904616 0.911238 0.205325
0.92282 0.911665 0.207706
0.941802 0.912261 0.209751
0.960952 0.912764 0.208484
0.98088 0.91397 0.20708
0.130694 0.977371 0.182345
0.162646 0.973693 0.179568
0.192142 0.970764 0.177783
0.22121 0.96817 0.176349
0.251453 0.965774 0.175677
0.283085 0.963134 0.175525
0.315908 0.96051 0.175708
0.349966 0.957534 0.176745
0.384833 0.954559 0.177905
0.420279 0.951919 0.179721
0.455177 0.949157 0.181643
0.489723 0.946822 0.184115
0.523674 0.944503 0.186633
0.554635 0.942565 0.187549
0.581659 0.940642 0.185824
0.608423 0.93875 0.184421
0.635935 0.937301 0.184558
0.66302 0.935378 0.185473
0.688762 0.933898 0.18613
0.713603 0.932982 0.187304
0.737819 0.932097 0.188724
0.761852 0.931609 0.190814
0.78471 0.93138 0.193103
0.806165 0.931121 0.195209
0.826764 0.931075 0.197391
0.846845 0.931334 0.199771
0.866346 0.931395 0.201846
0.885252 0.931685 0.204074
0.903563 0.931792 0.205982
0.921675 0.931884 0.207843
0.940536 0.932235 0.209949
0.958602 0.932372 0.21117
0.97705 0.932876 0.210773
0.135393 1 0.186999
0.167987 0.998489 0.184817
0.197986 0.995941 0.183307
0.227619 0.993774 0.182589
0.258091 0.991501 0.182132
0.289616 0.988724 0.18172
0.32192 0.985626 0.18172
0.355901 0.982605 0.182223
0.390234 0.979232 0.183581
0.424887 0.976059 0.184833
0.459617 0.973266 0.186694
0.493736 0.970687 0.188952
0.527306 0.968017 0.191241
0.55903 0.965576 0.192859
0.586587 0.963607 0.191745
0.612863 0.9617 0.190021
0.639002 0.95967 0.189044
0.665324 0.957961 0.189258
0.690593 0.956237 0.189548
0.714748 0.955154 0.190341
0.738155 0.954253 0.191455
0.761074 0.953399 0.192874
0.783764 0.952911 0.194842
0.805051 0.952422 0.196689
0.825666 0.952255 0.198688
0.845731 0.952209 0.200778
0.865003 0.952041 0.202609
0.883696 0.952102 0.204562
0.902113 0.952148 0.206394
0.920241 0.952087 0.208057
0.938277 0.952178 0.209796
0.956649 0.951919 0.211292
0.974273 0.952148 0.212436
0.136065 1 0.187778
0.16849 1 0.185565
0.198367 1 0.184039
0.22797 1 0.183093
0.258244 1 0.182452
0.290166 1 0.182467
0.322942 1 0.182956
0.357137 1 0.183764
0.392386 1 0.185885
0.427405 0.998047 0.187762
0.462119 0.995361 0.189868
0.496284 0.99292 0.192355
0.530236 0.990646 0.195163
0.562509 0.988098 0.197253
0.591409 0.985794 0.19736
0.617014 0.98349 0.195239
0.642313 0.981338 0.193652
0.667933 0.979507 0.193271
0.692943 0.977813 0.193423
0.716487 0.976318 0.193729
0.739284 0.975296 0.194522
0.761151 0.974304 0.195392
0.783444 0.973709 0.197116
0.804837 0.973129 0.19881
0.825132 0.972595 0.200427
0.844953 0.972366 0.202304
0.864088 0.972 0.203937
0.882918 0.972107 0.20589
0.901152 0.971878 0.207462
0.919173 0.971588 0.208911
0.937087 0.971511 0.210468
0.955627 0.971252 0.211719
0.9729 0.971206 0.213199
0.136538 1 0.188418
0.168612 1 0.185992
0.198398 1 0.184283
0.227771 1 0.183108
0.258 1 0.182437
0.28954 1 0.182116
0.322408 1 0.182589
0.356451 1 0.183383
0.391135 1 0.18471
