Modular_evening_Display_LUT_v1_17x17.cube
TITLE "Generated by Resolve"
LUT_3D_SIZE 17
0.0130617 0.0146334 0.0121614
0.120928 0.0213779 0.0159762
0.227604 0.0348211 0.0166934
0.330434 0.044358 0.0128328
0.431724 0.0543069 0.0116121
0.525292 0.0651255 0.0204166
0.609461 0.0756237 0.0338293
0.68571 0.0859236 0.0449683
0.75523 0.0962081 0.0558328
0.818433 0.106645 0.066804
0.872984 0.117357 0.0776837
0.914733 0.128328 0.0890059
0.953582 0.139452 0.100252
0.991897 0.15053 0.111482
1 0.157366 0.11754
1 0.162997 0.122225
1 0.168795 0.12697
0.00859083 0.113817 0.022446
0.0947127 0.112123 0.0257572
0.202701 0.120348 0.0152285
0.305089 0.123598 0.0075227
0.405295 0.128344 0.00433356
0.500572 0.136065 0.0124971
0.586313 0.144274 0.0229953
0.663905 0.153063 0.0335393
0.734905 0.16231 0.0441444
0.799176 0.172229 0.0550088
0.856748 0.182574 0.0661021
0.900954 0.19353 0.0772564
0.939773 0.204807 0.0890211
0.977707 0.21619 0.100649
1 0.225498 0.10956
1 0.231647 0.114366
1 0.237644 0.119158
0.00631724 0.206439 0.0313725
0.086656 0.204227 0.0322118
0.170657 0.203449 0.0372168
0.277226 0.213382 0.0305791
0.384054 0.215503 0.0146334
0.481315 0.220066 0.0176699
0.568689 0.22501 0.0244755
0.647837 0.230655 0.0328527
0.719661 0.237583 0.0421607
0.784955 0.245655 0.0520943
0.843259 0.255116 0.0629282
0.891157 0.265354 0.0736706
0.929778 0.275883 0.0849317
0.96733 0.28658 0.096376
1 0.296712 0.106798
1 0.303136 0.111635
1 0.30901 0.115877
0.00877394 0.298497 0.0404212
0.0804761 0.295201 0.0400092
0.162188 0.29604 0.0447242
0.24744 0.295766 0.0527504
0.347311 0.306065 0.0595712
0.457481 0.311955 0.0338445
0.549325 0.313146 0.029572
0.630121 0.31574 0.0356909
0.703075 0.319905 0.0431525
0.76939 0.325658 0.0519722
0.828229 0.333288 0.0618143
0.879133 0.341939 0.0719615
0.918822 0.35111 0.082536
0.955703 0.360601 0.0931106
0.993011 0.370245 0.10425
1 0.376791 0.109758
1 0.382666 0.113848
0.0161593 0.390249 0.0519417
0.0842145 0.387076 0.0516365
0.16054 0.387182 0.0567178
0.239353 0.388418 0.0603952
0.326986 0.389075 0.0704509
0.418296 0.397055 0.0847944
0.522606 0.408286 0.0660563
0.610407 0.404654 0.0456092
0.685176 0.404639 0.0463874
0.752438 0.407874 0.0540322
0.811749 0.413428 0.0628061
0.864225 0.420096 0.0715648
0.90724 0.427619 0.0814527
0.944045 0.436011 0.0919203
0.980346 0.444465 0.102708
1 0.451392 0.110369
1 0.456901 0.114305
0.0241398 0.480949 0.0657206
0.0905013 0.477531 0.0652934
0.161212 0.476936 0.0686046
0.2421 0.477562 0.074815
0.318502 0.478386 0.0770428
0.406424 0.480049 0.0889754
0.489479 0.484291 0.105608
0.582513 0.497185 0.0976883
0.66421 0.49514 0.0769207
0.735653 0.490089 0.059678
0.795758 0.492744 0.065156
0.848814 0.497856 0.0740368
0.895705 0.504189 0.0835126
0.933425 0.511147 0.09308
0.969345 0.518334 0.103578
1 0.525093 0.113207
1 0.530434 0.117189
0.0325933 0.567285 0.0793469
0.0979629 0.563653 0.0788739
0.164675 0.562173 0.0804456
0.242039 0.561608 0.0856184
0.319921 0.561532 0.0892195
0.396094 0.561929 0.0941787
0.479789 0.563012 0.106706
0.557015 0.566247 0.122332
0.636683 0.577813 0.127184
0.712032 0.581033 0.110857
0.776425 0.579721 0.0981155
0.832639 0.578759 0.0891585
0.883009 0.579705 0.0870832
0.92343 0.585046 0.0963607
0.959182 0.59089 0.106645
0.995605 0.596994 0.116915
1 0.601526 0.121111
0.0440223 0.647608 0.0935378
0.107866 0.643091 0.0921187
0.172229 0.641169 0.0931868
0.245869 0.639704 0.0970016
0.327291 0.638926 0.104707
0.398032 0.638773 0.105623
0.471962 0.639017 0.1131
0.550881 0.640635 0.12517
0.621607 0.643534 0.138338
0.688258 0.652308 0.152407
0.75494 0.659785 0.141527
0.812253 0.662348 0.133486
0.863798 0.663066 0.127123
0.911528 0.663478 0.121782
0.950134 0.663447 0.118273
0.986053 0.664637 0.120439
1 0.668849 0.126253
0.0584115 0.722591 0.109545
0.121584 0.717983 0.107851
0.184253 0.715511 0.108232
0.255787 0.713771 0.111696
0.334554 0.711711 0.118303
0.408606 0.710689 0.122942
0.476066 0.710674 0.125246
0.546136 0.710765 0.132357
0.618311 0.711971 0.143023
0.682734 0.715099 0.154757
0.738735 0.720943 0.168383
0.794171 0.728832 0.166796
0.846281 0.733883 0.161181
0.894606 0.736645 0.156695
0.939803 0.737606 0.152819
0.978134 0.737209 0.148775
1 0.738109 0.148486
0.0762341 0.793011 0.127901
0.138659 0.788098 0.124987
0.200427 0.785428 0.125643
0.269429 0.782727 0.12813
0.344961 0.780056 0.133333
0.421759 0.778241 0.140658
0.485069 0.777279 0.14023
0.550469 0.776333 0.14435
0.616754 0.776471 0.151263
0.681453 0.777554 0.160601
0.737255 0.780179 0.170138
0.785718 0.784146 0.179889
0.832364 0.790372 0.186419
0.879255 0.795529 0.18233
0.924651 0.798703 0.178302
0.968917 0.799664 0.174578
1 0.800366 0.173144
0.0957809 0.858701 0.147433
0.158007 0.85359 0.144198
0.218387 0.850034 0.143801
0.285237 0.846555 0.145266
0.358495 0.843336 0.149477
0.433036 0.840284 0.155596
0.499428 0.8383 0.158236
0.560159 0.836622 0.158587
0.621073 0.835401 0.162509
0.682185 0.835065 0.168917
0.737667 0.835752 0.176303
0.785565 0.837461 0.183551
0.829023 0.840131 0.190921
0.869749 0.84361 0.19733
0.911803 0.847608 0.19675
0.95555 0.849821 0.192187
0.997208 0.851331 0.189853
0.114656 0.919982 0.166064
0.176242 0.914137 0.162234
0.236301 0.910109 0.160937
0.301671 0.90573 0.162127
0.372793 0.901244 0.165179
0.445396 0.897276 0.170184
0.514488 0.89395 0.175357
0.571328 0.891234 0.173053
0.629435 0.888747 0.174746
0.684459 0.886671 0.177646
0.738201 0.886137 0.183017
0.785306 0.886259 0.188418
0.828367 0.887388 0.194232
0.867887 0.888655 0.199649
0.905333 0.890272 0.205325
0.945022 0.892348 0.205417
0.985885 0.894392 0.20209
0.130694 0.977371 0.182345
0.192142 0.970764 0.177783
0.251453 0.965774 0.175677
0.315908 0.96051 0.175708
0.384833 0.954559 0.177905
0.455177 0.949157 0.181643
0.523674 0.944503 0.186633
0.581659 0.940642 0.185824
0.635935 0.937301 0.184558
0.688762 0.933898 0.18613
0.737819 0.932097 0.188724
0.78471 0.93138 0.193103
0.826764 0.931075 0.197391
0.866346 0.931395 0.201846
0.903563 0.931792 0.205982
0.940536 0.932235 0.209949
0.97705 0.932876 0.210773
0.136065 1 0.187778
0.198367 1 0.184039
0.258244 1 0.182452
0.322942 1 0.182956
0.392386 1 0.185885
0.462119 0.995361 0.189868
0.530236 0.990646 0.195163
0.591409 0.985794 0.19736
0.642313 0.981338 0.193652
0.692943 0.977813 0.193423
0.739284 0.975296 0.194522
0.783444 0.973709 0.197116
0.825132 0.972595 0.200427
0.864088 0.972 0.203937
0.901152 0.971878 0.207462
0.937087 0.971511 0.210468
0.9729 0.971206 0.213199
0.136294 1 0.188403
0.197925 1 0.18407
0.257115 1 0.181903
0.32105 1 0.181582
0.389425 1 0.183444
0.458824 1 0.18764
0.526024 1 0.192172
0.588968 1 0.196002
0.640589 1 0.193454
0.690883 1 0.193271
0.737499 1 0.194614
0.780163 1 0.196689
0.821744 1 0.199878
0.860517 1 0.203113
0.897581 1 0.206363
0.933486 1 0.209171
0.969223 1 0.211719
0.134447 1 0.187167
0.195453 1 0.1823
0.253819 1 0.179553
0.317128 1 0.178866
0.384695 1 0.180423
0.453315 1 0.183825
0.520241 1 0.188113
0.583612 1 0.192233
0.635142 1 0.189578
0.685023 1 0.188952
0.731533 1 0.190112
0.773907 1 0.191989
0.81532 1 0.194934
0.854276 1 0.198093
0.891447 1 0.201282
0.927413 1 0.20415
0.963317 1 0.206699
0.130999 1 0.184497
0.191455 1 0.179156
0.249195 1 0.17612
0.311589 1 0.175082
0.378546 1 0.176516
0.446784 1 0.179126
0.513329 1 0.18323
0.576776 1 0.18735
0.629206 1 0.185214
0.678752 1 0.184176
0.725139 1 0.185229
0.767391 1 0.186969
0.808698 1 0.189761
0.847852 1 0.192966
0.885008 1 0.196109
0.921584 1 0.199191
0.957488 1 0.201785
0.0224765 0.0283818 0.0897383
0.122805 0.0184634 0.0914473
0.226963 0.034287 0.0942855
0.328283 0.0487221 0.0961013
0.429953 0.0595254 0.0972457
0.524178 0.0702983 0.100511
0.608652 0.0805676 0.106401
0.685023 0.090074 0.113466
0.754879 0.0999771 0.121965
0.818082 0.110079 0.131365
0.873182 0.120546 0.141466
0.915145 0.131472 0.152438
0.953765 0.142611 0.163333
0.991684 0.153674 0.174685
1 0.160418 0.18088
1 0.166232 0.186099
1 0.17229 0.191455
0.00289921 0.115282 0.0841077
0.0981308 0.114824 0.0876631
0.202029 0.120607 0.0843214
0.30341 0.125063 0.0829786
0.404059 0.131334 0.0831311
0.499657 0.139147 0.085771
0.585458 0.147234 0.0914778
0.663157 0.155764 0.0991836
0.73434 0.164889 0.108248
0.7991 0.174624 0.117922
0.856565 0.185077 0.128466
0.901335 0.196033 0.139651
0.940246 0.207355 0.150958
0.977996 0.218662 0.162356
1 0.227741 0.17116
1 0.234012 0.176608
1 0.240192 0.181613
0.00973526 0.207095 0.0904707
0.0897078 0.205005 0.0920272
0.172793 0.204944 0.0973526
0.277272 0.214054 0.0917678
0.383001 0.216297 0.080293
0.480537 0.22121 0.0826734
0.5682 0.226413 0.0881056
0.647684 0.232334 0.0955367
0.719875 0.239338 0.104158
0.785306 0.247532 0.113512
0.843336 0.256626 0.123781
0.891447 0.26685 0.13463
0.930312 0.277531 0.145769
0.967666 0.288411 0.157076
1 0.298329 0.167269
1 0.30454 0.172183
1 0.310704 0.176989
0.0130007 0.29897 0.0992599
0.0841993 0.295781 0.0988632
0.164782 0.29662 0.103716
0.248753 0.296635 0.110979
0.347951 0.306798 0.117372
0.45771 0.312169 0.0930953
0.549355 0.31368 0.0897231
0.630091 0.316686 0.0957961
0.703426 0.320958 0.103151
0.769757 0.326604 0.111757
0.828367 0.333989 0.121187
0.879499 0.342504 0.131258
0.919081 0.351858 0.141711
0.956237 0.361501 0.152712
0.993118 0.370916 0.163302
1 0.377478 0.169039
1 0.383627 0.173724
0.0181888 0.390341 0.109758
0.0860456 0.387106 0.109194
0.162036 0.387304 0.113848
0.240864 0.388983 0.117739
0.327916 0.389624 0.127703
0.419501 0.397696 0.141695
0.523262 0.408469 0.12314
0.610452 0.404639 0.103243
0.685634 0.40502 0.104448
0.752621 0.408362 0.11191
0.811948 0.413443 0.1205
0.864408 0.420096 0.12961
0.907591 0.427924 0.139757
0.944274 0.436042 0.149966
0.980499 0.44445 0.160723
1 0.451713 0.168612
1 0.457237 0.172763
0.0252537 0.480873 0.122911
0.0916609 0.477378 0.122118
0.162158 0.476982 0.125139
0.243107 0.477836 0.131655
0.319738 0.478874 0.134005
0.406683 0.48014 0.145357
0.48957 0.484367 0.161868
0.582696 0.497093 0.153674
0.664576 0.49514 0.133227
0.735576 0.489769 0.11606
0.796002 0.492515 0.122042
0.849012 0.497871 0.130968
0.896086 0.504143 0.140734
0.933669 0.510948 0.150546
0.969787 0.51841 0.16141
1 0.52517 0.171038
1 0.530175 0.174655
0.0333715 0.567422 0.136233
0.0985122 0.563516 0.135042
0.165408 0.562158 0.136873
0.242893 0.561883 0.142046
0.320546 0.5617 0.145693
0.39649 0.561807 0.150469
0.47982 0.562936 0.162875
0.55726 0.566491 0.178653
0.636667 0.57763 0.183108
0.712261 0.580652 0.166613
0.776745 0.579583 0.154223
0.832746 0.578073 0.144884
0.88307 0.578912 0.142824
0.923644 0.584588 0.152819
0.959121 0.590372 0.162936
0.995514 0.596231 0.173617
1 0.601114 0.17818
0.0442969 0.647135 0.150027
0.108186 0.642771 0.14818
0.172488 0.641123 0.149157
0.246204 0.639689 0.153109
0.327062 0.638483 0.160403
0.397665 0.638361 0.161364
0.472129 0.638773 0.169024
0.55053 0.640024 0.180789
0.621408 0.642847 0.193912
0.688258 0.651957 0.208133
0.755001 0.65893 0.196612
0.812314 0.661524 0.188708
0.864012 0.662547 0.182666
0.911391 0.662348 0.176806
0.949859 0.662257 0.173434
0.985794 0.663813 0.176013
1 0.667857 0.182055
0.0583963 0.722011 0.165911
0.121691 0.717632 0.163653
0.184207 0.715343 0.163973
0.25539 0.713252 0.167224
0.333791 0.711208 0.173709
0.408484 0.710323 0.178607
0.475547 0.710292 0.180758
0.545571 0.710292 0.187686
0.617945 0.711742 0.19852
0.682002 0.714199 0.209751
0.737957 0.720027 0.223316
0.794034 0.728206 0.221836
0.845975 0.732921 0.216114
0.89427 0.735561 0.211582
0.939132 0.736309 0.207416
0.977584 0.735912 0.203311
1 0.736446 0.202716
0.076112 0.792508 0.184192
0.138766 0.787915 0.181353
0.200061 0.785031 0.18114
0.268956 0.782269 0.183597
0.344182 0.779675 0.188693
0.420706 0.777462 0.195743
0.483986 0.776577 0.195193
0.54995 0.775952 0.199573
0.616068 0.775616 0.206241
0.680613 0.776669 0.215534
0.736431 0.778973 0.224842
0.784985 0.783093 0.234745
0.831632 0.789242 0.240879
0.878523 0.794232 0.236698
0.923766 0.797147 0.232364
0.968109 0.798123 0.228885
1 0.798337 0.226886
0.0954147 0.858228 0.203326
0.157275 0.852811 0.199847
0.217853 0.849424 0.199222
0.284764 0.846189 0.200793
0.357092 0.842527 0.204349
0.431937 0.839521 0.210636
0.49836 0.837461 0.21326
0.558846 0.835721 0.21326
0.619837 0.834424 0.217166
0.681071 0.833814 0.22356
0.73637 0.834394 0.230793
0.784665 0.83624 0.238239
0.827573 0.838346 0.245136
0.868772 0.842268 0.251881
0.91043 0.845777 0.250538
0.954513 0.848325 0.24625
0.995987 0.849653 0.243702
0.113924 0.919127 0.221805
0.17554 0.913283 0.217929
0.235187 0.908965 0.216327
0.300694 0.904799 0.217243
0.37145 0.900328 0.219898
0.444053 0.896162 0.224979
0.512871 0.892836 0.229969
0.569757 0.889815 0.227436
0.62742 0.887236 0.228763
0.682963 0.885344 0.231922
0.736309 0.884352 0.236988
0.784176 0.884733 0.242771
0.826825 0.885435 0.248173
0.866514 0.886732 0.253651
0.904173 0.888579 0.259571
0.943511 0.890379 0.259373
0.984497 0.892454 0.255879
0.129717 0.976364 0.237812
0.190906 0.969497 0.233021
0.250202 0.96466 0.231189
0.314122 0.958999 0.230671
0.383108 0.953277 0.232517
0.4533 0.947738 0.235904
0.521584 0.943023 0.240955
0.580041 0.939269 0.240238
0.634195 0.93521 0.23888
0.68687 0.932204 0.240131
0.736278 0.930419 0.242847
0.782788 0.929259 0.246845
0.825406 0.929213 0.251392
0.86479 0.929397 0.255756
0.902098 0.929946 0.260014
0.938109 0.930175 0.263767
0.975372 0.9308 0.264363
0.135103 1 0.243397
0.19733 1 0.239521
0.256825 1 0.237751
0.321233 1 0.238163
0.390204 0.99942 0.240497
0.460212 0.994049 0.244343
0.527749 0.988937 0.249149
0.588998 0.98381 0.251118
0.640269 0.979767 0.2477
0.690593 0.97586 0.247181
0.737255 0.973312 0.248157
0.781277 0.971679 0.250675
0.823224 0.970657 0.254124
0.862348 0.970169 0.257694
0.899413 0.969741 0.26096
0.935363 0.969421 0.263966
0.971084 0.969024 0.266606
0.135012 1 0.243748
0.196612 1 0.239155
0.255451 1 0.236973
0.319097 1 0.23682
0.387381 1 0.238575
0.456519 1 0.241764
0.523919 1 0.246616
0.587091 1 0.250492
0.638895 1 0.247761
0.68896 1 0.24741
0.735454 1 0.248569
0.778561 1 0.250751
0.82005 1 0.253819
0.859129 1 0.257145
0.89604 1 0.260258
0.931792 1 0.263005
0.967498 1 0.265522
0.132891 1 0.242237
0.194003 1 0.237247
0.252186 1 0.234638
0.315053 1 0.233967
0.382284 1 0.234943
0.451057 1 0.237949
0.517952 1 0.242283
0.581643 1 0.246448
0.63328 1 0.243824
0.683131 1 0.242985
0.72958 1 0.243946
0.772152 1 0.245869
0.813642 1 0.248814
0.852735 1 0.252186
0.889754 1 0.255283
0.925948 1 0.258137
0.961608 1 0.260517
0.129427 1 0.239368
0.190097 1 0.23418
0.247364 1 0.230976
0.30959 1 0.229892
0.37612 1 0.230625
0.444373 1 0.233234
0.510994 1 0.237293
0.574762 1 0.241459
0.627161 1 0.23949
0.676661 1 0.238163
0.723079 1 0.238987
0.765255 1 0.240803
0.806867 1 0.243748
0.846174 1 0.246906
0.883635 1 0.250172
0.919966 1 0.253162
0.955932 1 0.255665
0.0325322 0.0398108 0.158541
0.12015 0.0344549 0.161349
0.227909 0.0153658 0.162127
0.327138 0.0486152 0.167407
0.427771 0.0660563 0.171801
0.522316 0.0782177 0.175341
0.607141 0.088365 0.179263
0.684199 0.0979324 0.184497
0.754406 0.107439 0.190799
0.817624 0.117006 0.198428
0.873198 0.127184 0.207477
0.915511 0.137865 0.21738
0.954192 0.14873 0.227619
0.992187 0.159503 0.2383
1 0.166445 0.244953
1 0.172763 0.251041
1 0.178775 0.256779
0.0190127 0.120317 0.149355
0.102983 0.120195 0.151263
0.200961 0.120851 0.15317
0.30074 0.129122 0.155398
0.401328 0.137209 0.157153
0.497795 0.145449 0.159319
0.58436 0.154009 0.16321
0.662516 0.162417 0.168414
0.733684 0.171221 0.175113
0.798917 0.180835 0.183566
0.856718 0.191226 0.192889
0.902052 0.201984 0.20325
0.94078 0.213092 0.213794
0.978653 0.22417 0.224826
1 0.232868 0.233158
1 0.239475 0.239094
1 0.245747 0.244678
0.00935378 0.209186 0.148425
0.0914778 0.20734 0.149508
0.177737 0.208576 0.156741
0.278309 0.215564 0.153216
0.381628 0.21973 0.1505
0.479606 0.225422 0.152575
0.567391 0.230991 0.156451
0.647028 0.237186 0.161883
0.7196 0.24416 0.168917
0.785183 0.252369 0.177172
0.843488 0.261677 0.186343
0.892409 0.272053 0.196826
0.930922 0.282353 0.207141
0.968261 0.292729 0.217655
1 0.302464 0.227634
1 0.309026 0.232898
1 0.315251 0.238163
0.0159609 0.300298 0.154223
0.0885634 0.297398 0.154437
0.171374 0.298436 0.161227
0.252186 0.298955 0.167483
0.349386 0.308431 0.17258
0.457527 0.313237 0.153201
0.549035 0.316304 0.15314
0.630014 0.319738 0.158312
0.703487 0.324178 0.164721
0.769863 0.330114 0.172259
0.828824 0.337301 0.181094
0.880186 0.346166 0.190921
0.919738 0.355352 0.201007
0.956649 0.364736 0.211353
0.993591 0.373999 0.221775
1 0.380835 0.227665
1 0.38677 0.232334
0.0224155 0.391546 0.163928
0.0906844 0.388556 0.163638
0.165942 0.3888 0.168032
0.244846 0.390097 0.172412
0.329992 0.390936 0.181537
0.42092 0.398993 0.194507
0.523873 0.409445 0.1776
0.61091 0.406317 0.1608
0.685802 0.406943 0.162554
0.752911 0.410452 0.169604
0.81236 0.415824 0.177829
0.865019 0.422644 0.187152
0.907958 0.430167 0.196475
0.944884 0.438453 0.206973
0.98114 0.447105 0.217502
1 0.454139 0.225376
1 0.459709 0.229847
0.0287175 0.481682 0.175967
0.0950942 0.478172 0.175235
0.165393 0.47808 0.178149
0.245838 0.478752 0.184649
0.321843 0.479698 0.186862
0.408225 0.480964 0.198032
0.491234 0.485725 0.214405
0.58352 0.497917 0.206149
0.664958 0.495766 0.186435
0.735912 0.49102 0.171572
0.796521 0.494026 0.177249
0.849607 0.499229 0.18616
0.896239 0.505516 0.195621
0.934234 0.512596 0.20589
0.970062 0.519768 0.216068
1 0.526467 0.225666
1 0.531777 0.229847
0.0357671 0.567926 0.188373
0.100969 0.564187 0.187259
0.167651 0.562997 0.188861
0.244373 0.562203 0.19382
0.322591 0.562005 0.197955
0.398138 0.562524 0.202411
0.480949 0.563622 0.214618
0.558114 0.566934 0.229908
0.637339 0.577981 0.233921
0.71284 0.581186 0.218173
0.77702 0.579721 0.205783
0.832883 0.578241 0.196902
0.883345 0.579767 0.196521
0.923888 0.58526 0.206088
0.959594 0.591196 0.216526
0.99585 0.597238 0.227176
1 0.601617 0.231312
0.0458839 0.647395 0.201526
0.109987 0.643336 0.199802
0.173983 0.641382 0.200473
0.247288 0.639872 0.204379
0.32842 0.638941 0.21178
0.399207 0.638773 0.212741
0.472831 0.638926 0.219974
0.550805 0.640253 0.231495
0.621851 0.643351 0.244755
0.688869 0.652308 0.258518
0.755291 0.659159 0.247166
0.812818 0.661753 0.239506
0.864256 0.662196 0.233051
0.911482 0.661952 0.227344
0.950271 0.662303 0.224918
0.985916 0.663966 0.22797
1 0.668025 0.233814
0.0597086 0.722454 0.217243
0.122866 0.71783 0.21474
0.185275 0.71548 0.214847
0.256306 0.713649 0.218189
0.334691 0.711757 0.224643
0.409339 0.710567 0.22948
0.47602 0.710369 0.231449
0.546105 0.71046 0.238392
0.618128 0.711543 0.248814
0.682094 0.714168 0.26006
0.738567 0.720272 0.273899
0.79411 0.727916 0.271748
0.84596 0.732769 0.266102
0.894194 0.73518 0.261418
0.939071 0.73579 0.257282
0.977401 0.73521 0.253132
1 0.735576 0.252293
0.076997 0.792828 0.235264
0.139422 0.787839 0.23209
0.20087 0.785199 0.231769
0.269337 0.782391 0.234043
0.344045 0.779553 0.238758
0.420798 0.777676 0.245899
0.484657 0.776638 0.245808
0.549752 0.77557 0.249561
0.61593 0.775464 0.256291
0.680537 0.77644 0.265324
0.736065 0.778622 0.274434
0.784756 0.782696 0.284474
0.831373 0.788708 0.29041
0.878218 0.793576 0.286091
0.923476 0.79649 0.281834
0.967254 0.796948 0.277729
1 0.797528 0.27599
0.0953841 0.857984 0.25391
0.157641 0.85304 0.250538
0.217838 0.849424 0.249393
0.284474 0.845792 0.250782
0.356725 0.84239 0.254292
0.431342 0.839216 0.260258
0.498283 0.83714 0.263203
0.558526 0.83537 0.263096
0.619379 0.833936 0.266835
0.680323 0.833249 0.272725
0.735714 0.833646 0.279774
0.78378 0.835279 0.286976
0.827085 0.837736 0.294194
0.867903 0.841108 0.300587
0.910109 0.844923 0.299474
0.953628 0.846998 0.294865
0.995102 0.848295 0.292302
0.113497 0.918944 0.272145
0.175067 0.913008 0.268055
0.234546 0.908675 0.266346
0.29987 0.904448 0.26688
0.37052 0.899855 0.269581
0.442893 0.895705 0.274174
0.511971 0.89192 0.279133
0.568902 0.889158 0.276844
0.626612 0.886442 0.278035
0.681849 0.884306 0.280781
0.735729 0.883513 0.285985
0.783001 0.883421 0.291264
0.825925 0.884276 0.296818
0.865675 0.885634 0.302388
0.902953 0.887098 0.307912
0.941833 0.889296 0.308186
0.98352 0.891157 0.304219
0.128893 0.975708 0.287755
0.18999 0.969146 0.282902
0.248768 0.96376 0.280415
0.312718 0.958312 0.280156
0.381582 0.952514 0.28159
0.451682 0.946868 0.284977
0.520058 0.942107 0.289723
0.579156 0.937789 0.289647
0.633021 0.934173 0.287739
0.685603 0.930999 0.288731
0.734752 0.929 0.291096
0.781628 0.928206 0.295338
0.824079 0.927901 0.299733
0.863462 0.928038 0.304036
0.900786 0.928359 0.308156
0.937087 0.928862 0.312261
0.974395 0.929488 0.31284
0.133486 1 0.293278
0.195804 1 0.289128
0.255299 1 0.287221
0.319661 1 0.287388
0.388632 0.998657 0.289525
0.458442 0.993149 0.293278
0.525841 0.987762 0.297581
0.587762 0.982757 0.300145
0.638621 0.978241 0.296117
0.689281 0.974594 0.295552
0.735759 0.971969 0.296437
0.780102 0.970397 0.299107
0.821836 0.969085 0.302251
0.860883 0.96846 0.305699
0.89807 0.968277 0.309194
0.934005 0.967941 0.3122
0.970001 0.967697 0.314992
0.133227 1 0.293568
0.194888 1 0.288808
0.253681 1 0.286366
0.317281 1 0.285756
0.38529 1 0.287282
0.454704 1 0.290745
0.522148 1 0.295155
0.585748 1 0.299367
0.63743 1 0.296574
0.687663 1 0.295964
0.734432 1 0.297276
0.777218 1 0.299306
0.818753 1 0.302235
0.857633 1 0.305409
0.894759 1 0.308629
0.930724 1 0.311421
0.966491 1 0.313954
0.131029 1 0.292012
0.192279 1 0.28687
0.250172 1 0.283696
0.312947 1 0.282689
0.380331 1 0.283803
0.448951 1 0.286687
0.516106 1 0.290837
0.57969 1 0.294972
0.631846 1 0.292515
0.681651 1 0.291539
0.728313 1 0.292622
0.770748 1 0.294347
0.812284 1 0.297215
0.85127 1 0.300267
0.888518 1 0.303365
0.924666 1 0.30631
0.96051 1 0.308782
0.127535 1 0.289189
0.188037 1 0.283406
0.245411 1 0.280064
0.307378 1 0.278782
0.374121 1 0.279393
0.442374 1 0.281865
0.509087 1 0.285847
0.572702 1 0.28986
0.625742 1 0.287953
0.675288 1 0.286702
0.721706 1 0.287541
0.764157 1 0.289158
0.805676 1 0.291966
0.845136 1 0.295232
0.882231 1 0.298329
0.918776 1 0.301472
0.95552 1 0.304768
0.0384527 0.049546 0.228183
0.123293 0.0473793 0.230076
0.221836 0.0302129 0.234134
0.327031 0.0294957 0.231998
0.42707 0.06215 0.239872
0.521126 0.0805982 0.245365
0.605615 0.0945907 0.250263
0.682673 0.106142 0.25565
0.753323 0.116136 0.261463
0.817136 0.125887 0.268452
0.873243 0.135958 0.276844
0.915953 0.146319 0.28571
0.954742 0.156954 0.295506
0.992828 0.167361 0.305333
1 0.174212 0.312108
1 0.180453 0.31841
1 0.18674 0.324727
0.035111 0.131273 0.217655
0.110765 0.129015 0.218479
0.198978 0.122652 0.220981
0.30042 0.123903 0.220584
0.399954 0.138888 0.226749
0.496132 0.149645 0.230137
0.583047 0.1608 0.234775
0.661524 0.170321 0.239399
0.733257 0.179614 0.245243
0.798428 0.188907 0.252354
0.856291 0.199084 0.260884
0.902556 0.209705 0.270344
0.94136 0.220554 0.280339
0.979248 0.231525 0.290623
1 0.240223 0.298848
1 0.246647 0.304906
